X:440
T:
R:vals
S:Efter »Florsen» i Burs.
O:Gotland, Burs
M:3/4
L:1/8
K:A
e'4 c'e|d4 B2|d4 bd|c4 A2|c3 def|e4 c2|d4 Bd|c4 A2|c3 def|
e4 a2|c'2 b2 g2|a4 z2::f3 ^e f2 |a2 g2 f2|fe a2 e2|c4 z e|
de d2 B2|cd c2 A2|Bc B2 G2|A4 z2::e2 ^d2 e2|f4 e2|e2 cc cc|
c2 B2 c2|d3 dBG|1 E3 GBd|c3 dcB|A4 z2:|2 E2 z2 g2|
a2 z2 c'2|a6|]

